X: 1
T: Mna Na HEireann
M: 4/4
L: 1/8
R: barndance
K: Dmaj
&quot;Em&quot;EEF G d4|d&quot;E&quot;edc &quot;A&quot;E4|EF &quot;Em&quot;G2 FG E2|&quot;A&quot;E6 z2|
&quot;Em&quot;EEF G d4|d&quot;E&quot;edc &quot;A&quot;E4|EF &quot;G&quot;G2 FG &quot;A&quot;A2|A6 z2|
G&quot;D&quot;FA &quot;Bm&quot;D D4|z &quot;Bm&quot;DD d d4|e&quot;G&quot;fed BA B2|B6 AG|
F&quot;Em&quot;E d4 de|&quot;A&quot;dcA &quot;G&quot;B4 E|E2 DC &quot;D&quot;D4||
